tools/download-figma-icons/icons/outlined-large/money-bag.svg

<svg width="64" height="64" viewBox="0 0 64 64" fill="none" xmlns="http://www.w3.org/2000/svg">
<path fill-rule="evenodd" clip-rule="evenodd" d="M32.0003 60.9998C41.3763 60.9998 47.7933 59.0828 51.0743 55.3028C53.6783 52.3028 54.5313 47.9348 53.6803 41.9498C52.0433 30.4158 42.5503 22.5318 40.5703 21.0008H23.4293C21.4503 22.5318 11.9573 30.4158 10.3193 41.9498C9.46927 47.9348 10.3213 52.3028 12.9263 55.3028C16.2073 59.0828 22.6243 60.9998 32.0003 60.9998ZM33.7375 4.15733C31.7371 4.76916 29.6686 5.40179 27.4103 5.40179C24.9203 5.40179 22.3193 4.80379 20.3263 4.19879L23.8533 12.0008H40.2363L44.6213 4.18679C44.0163 3.83079 42.8373 3.34879 40.6583 3.07479C38.2587 2.77234 36.0683 3.44333 33.752 4.1529L33.7393 4.15679L33.7375 4.15733ZM21.9993 16.6238C21.9993 17.3828 22.6173 18.0008 23.3773 18.0008H40.6233C41.3833 18.0008 42.0013 17.3828 42.0013 16.6238V16.3788C42.0013 15.6188 41.3833 15.0008 40.6233 15.0008H23.3773C22.6173 15.0008 21.9993 15.6188 21.9993 16.3788V16.6238ZM43.7333 19.6978C47.3153 22.7438 55.0853 30.4988 56.6523 41.5288C57.6323 48.4248 56.5493 53.5738 53.3403 57.2688C49.4083 61.7978 42.4283 63.9998 32.0003 63.9998C21.5713 63.9998 14.5923 61.7978 10.6603 57.2688C7.45127 53.5738 6.36827 48.4248 7.34727 41.5288C8.91527 30.4988 16.6843 22.7438 20.2663 19.6978C19.4843 18.9068 18.9993 17.8218 18.9993 16.6238V16.3788C18.9993 14.8808 19.7573 13.5588 20.9083 12.7688L16.1323 2.20479C15.8763 1.63879 15.9963 0.972789 16.4333 0.531789C16.8713 0.0897886 17.5323 -0.0352114 18.1043 0.214789C18.1543 0.236789 23.1233 2.40179 27.4103 2.40179C29.2203 2.40179 30.9893 1.86079 32.8623 1.28779L32.8644 1.28714C35.3857 0.515341 37.9941 -0.283104 41.0313 0.0987886C46.3873 0.769789 47.6263 2.72379 47.8783 3.30579C48.0633 3.73579 48.0383 4.22779 47.8093 4.63579L43.1973 12.8558C44.2853 13.6538 45.0013 14.9298 45.0013 16.3788V16.6238C45.0013 17.8218 44.5153 18.9068 43.7333 19.6978ZM38.721 33.9909C38.24 34.6669 37.302 34.8229 36.629 34.3419C33.691 32.2469 29.734 32.6539 27.221 35.3129C26.734 35.8259 26.336 36.3979 26.009 37.0009H32C32.828 37.0009 33.5 37.6729 33.5 38.5009C33.5 39.3289 32.828 40.0009 32 40.0009H25.063C24.984 40.6649 24.984 41.3359 25.063 42.0009H32C32.828 42.0009 33.5 42.6729 33.5 43.4999C33.5 44.3279 32.828 44.9999 32 44.9999H26.01C26.337 45.6029 26.734 46.1729 27.221 46.6869C29.214 48.7929 32.109 49.5359 34.777 48.6159C35.4 48.4039 36.023 48.0759 36.629 47.6439C37.302 47.1629 38.238 47.3199 38.721 47.9929C39.202 48.6669 39.046 49.6039 38.371 50.0849C37.529 50.6869 36.648 51.1479 35.751 51.4539C34.668 51.8259 33.56 52.0079 32.463 52.0079C29.719 52.0079 27.05 50.8719 25.041 48.7469C23.999 47.6469 23.232 46.3659 22.728 44.9999H19.999C19.171 44.9999 18.499 44.3279 18.499 43.4999C18.499 42.6729 19.171 42.0009 19.999 42.0009H22.057C21.999 41.3349 21.999 40.6659 22.056 40.0009H19.999C19.171 40.0009 18.499 39.3289 18.499 38.5009C18.499 37.6729 19.171 37.0009 19.999 37.0009H22.727C23.232 35.6349 23.999 34.3529 25.041 33.2509C28.596 29.4929 34.202 28.9249 38.371 31.8999C39.046 32.3809 39.202 33.3169 38.721 33.9909Z" fill="black"/>
</svg>

<svg xmlns="http://www.w3.org/2000/svg" width="64" height="64" fill="none" viewBox="0 0 64 64"><path fill="currentColor" fill-rule="evenodd" d="M32 61c9.376 0 15.793-1.917 19.074-5.697 2.604-3 3.457-7.368 2.606-13.353C52.043 30.416 42.55 22.532 40.57 21H23.43c-1.98 1.532-11.473 9.416-13.11 20.95-.85 5.985.001 10.353 2.606 13.353C16.207 59.083 22.624 61 32 61m1.737-56.843c-2 .612-4.068 1.245-6.327 1.245-2.49 0-5.09-.598-7.084-1.203L23.853 12h16.383l4.385-7.814c-.605-.356-1.784-.838-3.963-1.112-2.4-.303-4.59.368-6.906 1.078l-.013.004zM22 16.624A1.38 1.38 0 0 0 23.377 18h17.246a1.38 1.38 0 0 0 1.378-1.377v-.245A1.38 1.38 0 0 0 40.623 15H23.377A1.38 1.38 0 0 0 22 16.379zm21.734 3.074c3.582 3.046 11.352 10.8 12.92 21.83.98 6.897-.104 12.046-3.313 15.74C49.408 61.799 42.428 64 32 64s-17.408-2.202-21.34-6.731c-3.209-3.695-4.292-8.844-3.313-15.74 1.568-11.03 9.337-18.785 12.92-21.831a4.36 4.36 0 0 1-1.268-3.074v-.245c0-1.498.758-2.82 1.91-3.61L16.131 2.205a1.5 1.5 0 0 1 1.972-1.99c.05.022 5.02 2.187 9.306 2.187 1.81 0 3.58-.541 5.452-1.114h.002c2.522-.773 5.13-1.571 8.167-1.19 5.356.672 6.595 2.626 6.847 3.208.185.43.16.922-.069 1.33l-4.612 8.22A4.36 4.36 0 0 1 45 16.379v.245a4.36 4.36 0 0 1-1.268 3.074M38.721 33.99a1.5 1.5 0 0 1-2.092.35c-2.938-2.094-6.895-1.687-9.408.972A8 8 0 0 0 26.009 37H32a1.5 1.5 0 0 1 0 3h-6.937a8.5 8.5 0 0 0 0 2H32a1.5 1.5 0 0 1 0 3h-5.99a8 8 0 0 0 1.211 1.687c1.993 2.106 4.888 2.849 7.556 1.929a7.2 7.2 0 0 0 1.852-.972 1.5 1.5 0 1 1 1.742 2.441 10.2 10.2 0 0 1-2.62 1.369 10.1 10.1 0 0 1-3.288.554c-2.744 0-5.413-1.136-7.422-3.261A10.9 10.9 0 0 1 22.728 45h-2.729a1.5 1.5 0 0 1 0-3h2.058a11.6 11.6 0 0 1-.001-2h-2.057a1.5 1.5 0 0 1 0-3h2.728a11 11 0 0 1 2.314-3.75c3.555-3.757 9.161-4.325 13.33-1.35.675.48.831 1.417.35 2.09" clip-rule="evenodd"/></svg>
